X: 213
T:Ingonish Jig
S:Ir-Trad, Mark Boronkay, 4/97
M:6/8
L:1/8
K:EDor
Bee efg|fef dBA|Bee efg|fdB d3|Bee efg|fef dBA|BdB AFD|EFD E3:|
B2E B2E|FEF DFA|B2E B2E|ABc d3|B2E B2E|FEF DFA|BdB AFD|EFD E3:|
